public/svg/groups/creative-arts.svg

<svg xmlns="http://www.w3.org/2000/svg" viewBox="0 0 24 24" enable-background="new 0 0 24 24">
  <path style="text-indent:0;text-align:start;line-height:normal;text-transform:none;block-progression:tb;-inkscape-font-specification:Bitstream Vera Sans" d="M 13.5625 2.09375 C 13.428101 2.1063856 13.292949 2.1458156 13.15625 2.1875 L 13.15625 2.125 L 13.03125 2.15625 L 3.4375 4.625 A 1.0001 1.0001 0 0 0 3.34375 4.65625 C 2.4382085 5.0184666 1.8306776 5.9971381 2.03125 7 A 1.0001 1.0001 0 0 0 2.03125 7.0625 L 3.84375 13.84375 A 1.0001 1.0001 0 0 0 3.84375 13.875 C 4.4141872 15.814486 5.9532894 16.997305 7.5 17.6875 C 7.9739492 18.453736 8.5734068 19.131893 9.15625 19.6875 C 10.604024 21.067621 12.125 21.875 12.125 21.875 A 1.0001 1.0001 0 0 0 12.75 22 C 12.75 22 13.189251 21.921965 13.84375 21.75 C 14.498249 21.578035 15.367996 21.312141 16.28125 20.90625 C 16.96619 20.601832 17.707717 20.217335 18.375 19.71875 C 18.597428 19.552555 18.795337 19.37906 19 19.1875 C 19.818653 18.42126 20.469117 17.435401 20.6875 16.1875 L 21.96875 9.1875 A 1.0001 1.0001 0 0 0 22 9.15625 C 22.185902 8.040837 21.434255 7.018101 20.40625 6.8125 A 1.0001 1.0001 0 0 0 20.375 6.8125 L 16.28125 6.0625 L 15.59375 3.59375 C 15.58865 3.568368 15.56848 3.556034 15.5625 3.53125 C 15.432613 2.9927535 15.079103 2.6021604 14.65625 2.34375 C 14.350423 2.1568557 13.965697 2.0558433 13.5625 2.09375 z M 8.875 5.28125 L 8.875 5.3125 C 8.3958196 5.6142257 8.0158121 6.0775639 7.84375 6.59375 A 1.0001 1.0001 0 0 0 7.8125 6.71875 L 7.46875 8.78125 C 7.3775427 8.7809779 7.277599 8.7899752 7.1875 8.8125 C 6.3875 9.0125 6 10.1875 6 10.1875 C 6 10.1875 6.5222723 10.648644 7.125 10.78125 L 6.625 13.71875 C 6.5684328 14.041991 6.5578741 14.347269 6.5625 14.65625 C 6.2192395 14.283004 5.9400706 13.858551 5.78125 13.34375 L 3.96875 6.59375 C 3.9693224 6.59661 3.9680415 6.569033 4.0625 6.53125 L 8.875 5.28125 z M 9.84375 7 C 9.8695454 6.975069 9.8952065 6.9929511 9.9375 7 L 15 7.90625 L 13.5 16 L 10.5 15.5 L 10.59375 15.6875 C 10.986921 16.867012 11.952315 17.780035 13.125 18 L 12.78125 19.90625 C 12.533116 19.764618 11.620499 19.2571 10.53125 18.21875 C 9.4574275 17.195106 8.5893841 15.931721 8.5625 14.625 C 8.5586594 14.438326 8.5608761 14.250351 8.59375 14.0625 L 9.75 7.21875 C 9.7920249 7.0926753 9.8179546 7.024931 9.84375 7 z M 11.59375 10.46875 C 10.885547 10.507031 10.1875 11.1875 10.1875 11.1875 C 10.1875 11.1875 10.7 12.4 11.5 12.5 C 12.3 12.7 13.1875 11.8125 13.1875 11.8125 C 13.1875 11.8125 12.70625 10.6 11.90625 10.5 C 11.80625 10.475 11.694922 10.463281 11.59375 10.46875 z M 17.6875 11.5625 C 17.788672 11.557031 17.9 11.56875 18 11.59375 C 18.733333 11.685417 19.206134 12.675058 19.28125 12.84375 L 19.28125 12.875 L 19.25 12.9375 C 19.116124 13.051095 18.325457 13.685213 17.59375 13.59375 C 16.79375 13.49375 16.3125 12.3125 16.3125 12.3125 C 16.3125 12.3125 16.979297 11.600781 17.6875 11.5625 z" color="#000" overflow="visible" enable-background="accumulate" font-family="Bitstream Vera Sans"></path>
</svg>

<svg xmlns="http://www.w3.org/2000/svg" viewBox="0 0 24 24"><path style="text-indent:0;text-align:start;line-height:normal;text-transform:none;block-progression:tb;-inkscape-font-specification:Bitstream Vera Sans" d="M13.563 2.094c-.135.012-.27.052-.407.094v-.063l-.125.03-9.592 2.47a1 1 0 0 0-.094.03C2.438 5.02 1.83 5.998 2.03 7a1 1 0 0 0 0 .063l1.814 6.78a1 1 0 0 0 0 .032c.57 1.94 2.11 3.122 3.656 3.813.474.766 1.073 1.444 1.656 2 1.448 1.38 2.97 2.187 2.97 2.187a1 1 0 0 0 .624.125s.44-.078 1.094-.25c.654-.172 1.524-.438 2.437-.844.686-.304 1.428-.69 2.095-1.187.222-.167.42-.34.625-.532.82-.767 1.47-1.753 1.688-3l1.28-7A1 1 0 0 0 22 9.155c.186-1.115-.566-2.138-1.594-2.344a1 1 0 0 0-.03 0l-4.095-.75-.686-2.468c-.005-.026-.026-.038-.03-.063-.13-.537-.485-.928-.908-1.186-.306-.187-.69-.288-1.094-.25zM8.875 5.28v.032c-.48.302-.86.766-1.03 1.282a1 1 0 0 0-.032.125l-.344 2.06c-.092 0-.192.01-.282.033-.8.2-1.188 1.374-1.188 1.374s.522.462 1.125.594l-.5 2.94c-.057.322-.067.627-.063.936-.343-.373-.622-.797-.78-1.312l-1.813-6.75c0 .003-.002-.025.092-.063l4.813-1.25zM9.845 7c.025-.025.05-.007.092 0L15 7.906 13.5 16l-3-.5.094.188c.393 1.18 1.358 2.092 2.53 2.312l-.343 1.906c-.247-.14-1.16-.65-2.25-1.687-1.073-1.025-1.94-2.288-1.967-3.595-.004-.187-.002-.375.03-.563L9.75 7.22c.042-.127.068-.195.094-.22zm1.75 3.47c-.71.037-1.408.717-1.408.717S10.7 12.4 11.5 12.5c.8.2 1.688-.688 1.688-.688s-.482-1.212-1.282-1.312c-.1-.025-.21-.037-.312-.03zm6.092 1.092c.102-.005.213.007.313.032.733.09 1.206 1.08 1.28 1.25v.03l-.03.063c-.134.114-.925.748-1.656.657-.8-.1-1.282-1.28-1.282-1.28 0-.002.667-.713 1.375-.752z" color="#000" overflow="visible" font-family="Bitstream Vera Sans"/></svg>
